img/telegram.svg

<svg width="40" height="40" viewBox="0 0 40 40" fill="none" xmlns="http://www.w3.org/2000/svg">
<path fill-rule="evenodd" clip-rule="evenodd" d="M20 0C8.955 0 0 8.955 0 20C0 31.045 8.955 40 20 40C31.045 40 40 31.045 40 20C40 8.955 31.045 0 20 0ZM29.27 13.6017C28.97 16.7633 27.6667 24.4383 27.005 27.98C26.725 29.48 26.1717 29.9817 25.6383 30.03C24.4767 30.1367 23.595 29.2617 22.47 28.525C20.71 27.3717 19.715 26.6533 18.0067 25.5267C16.0317 24.225 17.3117 23.51 18.4367 22.3417C18.7317 22.035 23.8483 17.38 23.9483 16.9583C23.96 16.905 23.9733 16.7083 23.855 16.605C23.7367 16.5017 23.565 16.5367 23.4417 16.565C23.265 16.605 20.4533 18.4633 15.005 22.14C14.2067 22.6883 13.4833 22.955 12.835 22.9417C12.1217 22.9267 10.7483 22.5383 9.72667 22.205C8.475 21.7983 7.47833 21.5817 7.565 20.8917C7.61 20.5317 8.105 20.1633 9.05167 19.7867C14.8817 17.2467 18.77 15.5717 20.715 14.7617C26.27 12.4517 27.4233 12.05 28.1767 12.0367C29.12 12.0233 29.3467 12.8017 29.27 13.6017Z" fill="black"/>
</svg>

<svg width="40" height="40" fill="none" xmlns="http://www.w3.org/2000/svg"><path fill-rule="evenodd" clip-rule="evenodd" d="M20 0C8.955 0 0 8.955 0 20s8.955 20 20 20 20-8.955 20-20S31.045 0 20 0zm9.27 13.602c-.3 3.161-1.603 10.836-2.265 14.378-.28 1.5-.833 2.002-1.367 2.05-1.161.107-2.043-.768-3.168-1.505-1.76-1.153-2.755-1.872-4.463-2.998-1.975-1.302-.695-2.017.43-3.185.295-.307 5.411-4.962 5.511-5.384.012-.053.025-.25-.093-.353-.118-.103-.29-.068-.413-.04-.177.04-2.989 1.898-8.437 5.575-.798.548-1.522.815-2.17.802-.713-.015-2.087-.404-3.108-.737-1.252-.407-2.249-.623-2.162-1.313.045-.36.54-.729 1.487-1.105 5.83-2.54 9.718-4.215 11.663-5.025 5.555-2.31 6.708-2.712 7.462-2.725.943-.014 1.17.765 1.093 1.565z" fill="#000"/></svg>
